X: 24466
T: Lucky Lucky Day
R: slip jig
M: 9/8
K: Gmajor
|:GDG A~B2 dBe|(3ded B BAB dAB|GDG A~B2 dBe|dge ded BAB:|
|:GDG A~B2 GAB|ded BAB def|g2a bgg dBd|ede g2f edB|
~A2B dAA d2e|dBA A (3Bcd deg|abg dee ABd|ede g2e dBA:|
|:~e2B dee A (3Bcd|edB ABd EGB|AGA Bdd A (3Bcd|eda ded gfd|
~e2B dee gfd|edB dgf dBG|A2A BdA Bde|1 dAB ded A (3Bcd:|2 dAB ded BAB||

